X: 42060
T: Waltz Melancholique
R: waltz
M: 3/4
K: Dminor
A2 F2 E2|"Dm"D>d-d>D d2|"Am"[e6]|"Dm"F>f- f>F f2|"Em"e4d2|
"Dm"D>d- d>D d2|"Am" e2d2e2|"Dm"f>F- F>F f>g|"Am"e4 (3dcB|
"Dm"D>d-d>D d>d|"Am"E>e- e>E e>e|"F" F>f- f>F f>g|"Am"(3abag2e2|
"Dm"D>d d>D d>d|"C"E>e e>E e>e|"Dm" F>f f>F f>g|"Em"e>f g2 "E"^g2||
"A"a>a- a>a- ab/a/|"G"g4 g2|"F"f>f- f>f g2|"Em"e2-e>d c>B|
"Dm"A>a- a>A a>a|"Am"A>g- g>A g2|"Dm"A>f- f>A fg/f/|"Am"e2- e>f"Em"g>^g||
"Dm"a a2 a ab/a/|"Am"g4 g2|"Dm"f f2 f Fg|"Am"e2-e>d c>B|"Dm"A a2 A a>a|"Am"A g2 A g2|"Dm"A f2 A f>f|"Em"e2-e>f "E"g>^g||
"A" a>e^c>ae>c|"Bb"f>d B2 B>A|"Gm" G>A B2d2|"Edim" e4 g2|
"A"a>e^c>ae>^c|"Bb"f>d B2 B>A|"C"G4 E2|"Dm"D>E F2A2|
"A"(3ae^c (3ae^c (3ae^c|"Bb" f>d B>d (3BAG|"Edim"E>F- F>E F>G|"A"A2-A>d "Dm" f>g|
"A"a>e^c>ae>^c|"Bb"f>d B2 B>A|"G5" G2 z2 "Edim"E2|"Am"A2F2E2||
"Dm"D6-|D6]

